code/src/components/Assets/unmuted.svg

<svg id="Layer_1" data-name="Layer 1" xmlns="http://www.w3.org/2000/svg" viewBox="0 0 354.62 300.26"><path d="M0,70.19H80.27V52.89l8.88-.52V44H98V35.08h8.89V26.5h8.54c.16-3,.3-5.82.47-8.88h8.45V8.73h8.88V0H159.4V300.26h-26v-8.57h-8.57v-8.54l-8.89-.45v-8.47H107v-8.6H98.51c-.2-3-.39-5.8-.59-8.86H89.57v-8.89H80.69V239H10.31v-8.86H0Zm36.92,35.14v98.45c16.93,0,33.57,0,50.21,0a11.18,11.18,0,0,1,2.56.73v8.09h17.36v8.88h8.88v17.17h17v-177h-8.24c-.15,3-.28,5.77-.43,8.82h-8.55V79h-8.88v8.88H98v8.45l-8.88.47v8.52Z"/><path d="M336.94,79h8.89V96.37h8.79V203.66h-8.51v26.17h-8.46c-.87,5.92,0,11.69-.58,17.66h-8.42v17.67h-8.89v8.89h-8.57v8.54l-8.89.51v17H267.15v-25.9h8.54V256.81h8.53c.17-3,.32-5.82.49-8.89h8.44V239h8.61V221.72l8.85-.62V186.45l8.82-.43V114.27H311V79h-8.89V61.66h-8.54c-.15-3-.3-5.83-.46-8.89h-8.46V43.88h-8.6V26.57l-8.84-.6V.26h25.92V8.51H302V17.1h8.53c.2,3,.37,5.81.56,8.88h8.38v8.89h8.88V61.33h8.57Z"/><path d="M293,203.8h-8.26v17.35h-8.88v17.67H267v8.58h-8.52c-.2,3-.38,5.81-.58,8.87h-8.35v8.8h-26.2V239h8.09v-8.52l8.85-.62V212.82l8.88-.44V195.13H258V168.68h8.73V140.79h-8.36V105.56h-8.87V87.9h-8.87V79h-8.58V61.7l-8.84-.55V44h8.37V35.37h17.66v8.11h8.53c.19,3,.37,5.8.57,8.86h8.35v8.89h8.88V78.89h8.58V96.2l8.83.57Z"/><path d="M231.47,140.52h8.82v19.11h-8.36v35.22h-8.86v17.38h-8.51c-.21,3-.41,5.8-.63,8.84H188.07c-.13-2.46-.28-5.24-.45-8.3h-10V195.11h10.08v-8.88h8.57V168.91l8.83-.5V131.9h-8.37V123h-8.88V105.65h-10.3c-.11-3.07-.26-5.88-.31-8.68s0-5.78,0-9h10.3c.15-3,.28-5.81.42-8.81h26v8.44h8.6v17.29l8.83.67Z"/></svg>

<svg width="355" height="301" viewBox="0 0 355 301" fill="none" xmlns="http://www.w3.org/2000/svg">
<path d="M0 70.19H80.27V52.89L89.15 52.37V44H98V35.08H106.89V26.5H115.43C115.59 23.5 115.73 20.68 115.9 17.62H124.35V8.73H133.23V0H159.4V300.26H133.4V291.69H124.83V283.15L115.94 282.7V274.23H107V265.63H98.51C98.31 262.63 98.12 259.83 97.92 256.77H89.57V247.88H80.69V239H10.31V230.14H0V70.19ZM36.92 105.33V203.78C53.85 203.78 70.49 203.78 87.13 203.78C88.0094 203.921 88.8688 204.166 89.69 204.51V212.6H107.05V221.48H115.93V238.65H132.93V61.65H124.69C124.54 64.65 124.41 67.42 124.26 70.47H115.71V79H106.83V87.88H98V96.33L89.12 96.8V105.32L36.92 105.33Z" fill="white"/>
<path d="M336.94 79H345.83V96.37H354.62V203.66H346.11V229.83H337.65C336.78 235.75 337.65 241.52 337.07 247.49H328.65V265.16H319.76V274.05H311.19V282.59L302.3 283.1V300.1H267.15V274.2H275.69V256.81H284.22C284.39 253.81 284.54 250.99 284.71 247.92H293.15V239H301.76V221.72L310.61 221.1V186.45L319.43 186.02V114.27H311V79H302.11V61.66H293.57C293.42 58.66 293.27 55.83 293.11 52.77H284.65V43.88H276.05V26.57L267.21 25.97V0.26001H293.13V8.51001H302V17.1H310.53C310.73 20.1 310.9 22.91 311.09 25.98H319.47V34.87H328.35V61.33H336.92L336.94 79Z" fill="white"/>
<path d="M293 203.8H284.74V221.15H275.86V238.82H267V247.4H258.48C258.28 250.4 258.1 253.21 257.9 256.27H249.55V265.07H223.35V239H231.44V230.48L240.29 229.86V212.82L249.17 212.38V195.13H258V168.68H266.73V140.79H258.37V105.56H249.5V87.9H240.63V79H232.05V61.7L223.21 61.15V44H231.58V35.37H249.24V43.48H257.77C257.96 46.48 258.14 49.28 258.34 52.34H266.69V61.23H275.57V78.89H284.15V96.2L292.98 96.77L293 203.8Z" fill="white"/>
<path d="M231.47 140.52H240.29V159.63H231.93V194.85H223.07V212.23H214.56C214.35 215.23 214.15 218.03 213.93 221.07H188.07C187.94 218.61 187.79 215.83 187.62 212.77H177.62V195.11H187.7V186.23H196.27V168.91L205.1 168.41V131.9H196.73V123H187.85V105.65H177.55C177.44 102.58 177.29 99.77 177.24 96.97C177.19 94.17 177.24 91.19 177.24 87.97H187.54C187.69 84.97 187.82 82.16 187.96 79.16H213.96V87.6H222.56V104.89L231.39 105.56L231.47 140.52Z" fill="white"/>
</svg>
